svg/fluentui-system-icons/ic_fluent_textbox_align_bottom_24_filled.svg

<svg width="24" height="24" viewBox="0 0 24 24" fill="none" xmlns="http://www.w3.org/2000/svg">
<path d="M18.25 3C19.7688 3 21 4.23122 21 5.75V18.25C21 19.7688 19.7688 21 18.25 21H5.75C4.23122 21 3 19.7688 3 18.25V5.75C3 4.23122 4.23122 3 5.75 3H18.25ZM6.75 13.5L6.64823 13.5068C6.28215 13.5565 6 13.8703 6 14.25C6 14.6642 6.33579 15 6.75 15H17.25L17.3518 14.9932C17.7178 14.9435 18 14.6297 18 14.25C18 13.8358 17.6642 13.5 17.25 13.5H6.75ZM17.25 16.5H6.75L6.64823 16.5068C6.28215 16.5565 6 16.8703 6 17.25C6 17.6642 6.33579 18 6.75 18H17.25L17.3518 17.9932C17.7178 17.9435 18 17.6297 18 17.25C18 16.8358 17.6642 16.5 17.25 16.5Z" fill="#212121"/>
</svg>

<svg xmlns="http://www.w3.org/2000/svg" width="24" height="24"><path d="M18.25 3A2.75 2.75 0 0 1 21 5.75v12.5A2.75 2.75 0 0 1 18.25 21H5.75A2.75 2.75 0 0 1 3 18.25V5.75A2.75 2.75 0 0 1 5.75 3h12.5ZM6.75 13.5l-.102.007A.75.75 0 0 0 6.75 15h10.5l.102-.007a.75.75 0 0 0-.102-1.493H6.75Zm10.5 3H6.75l-.102.007A.75.75 0 0 0 6.75 18h10.5l.102-.007a.75.75 0 0 0-.102-1.493Z"/></svg>
